shared/images/iconfont/kb-iconfont-usercard-16.svg

<?xml version="1.0" encoding="UTF-8"?>
<svg width="16px" height="16px" viewBox="0 0 16 16" version="1.1" xmlns="http://www.w3.org/2000/svg" xmlns:xlink="http://www.w3.org/1999/xlink">
    <!-- Generator: sketchtool 41.2 (35397) - http://www.bohemiancoding.com/sketch -->
    <title>9859EE6E-E71F-4FC3-AB64-7848A698A584</title>
    <desc>Created with sketchtool.</desc>
    <defs></defs>
    <g id="Icons" stroke="none" stroke-width="1" fill="none" fill-rule="evenodd">
        <g id="Style-guide---Desktop---Icons-2" transform="translate(-401.000000, -1516.000000)" fill="#000000">
            <g id="kb-iconfont-usercard-16" transform="translate(401.000000, 1516.000000)">
                <path d="M13.6241463,5 C13.5146341,5 13.4214634,5.04823843 13.344878,5.14502253 L13.114878,5.44151987 C13.0382927,5.5312372 13,5.64829988 13,5.78625563 C13,5.92421139 13.0382927,6.04158132 13.114878,6.1309914 L14.0126829,7.291739 L14.0126829,8.48148148 L13.114878,9.8690086 C13.0382927,9.96548546 13,10.0828554 13,10.2137444 C13,10.3517001 13.0382927,10.4690701 13.114878,10.5655469 L13.344878,10.8482179 C13.4214634,10.9446948 13.5146341,11 13.6241463,11 C13.7280488,11 13.8212195,10.9446948 13.8978049,10.8482179 L15.8904878,8.35180254 C15.9617073,8.24825891 16,8.13119623 16,8 C16,7.86204424 15.9617073,7.75174109 15.8904878,7.65526424 L13.8978049,5.14502253 C13.8212195,5.04823843 13.7280488,5 13.6241463,5 Z" id="Fill-264"></path>
                <g id="Group-3">
                    <path d="M10.0001373,15 C10.0000443,14.999809 10,1.00087166 10,1.00087166 C10,1.00052131 0.999862729,1 0.999862729,1 C0.999955672,1.00019096 1,14.9991283 1,14.9991283 C1,14.9994787 10.0001373,15 10.0001373,15 Z M0,1.00087166 C0,0.448105505 0.444836974,0 0.995577499,0 L10.0044225,0 C10.5542648,0 11,0.444630861 11,1.00087166 L11,14.9991283 C11,15.5518945 10.555163,16 10.0044225,16 L0.995577499,16 C0.445735229,16 0,15.5553691 0,14.9991283 L0,1.00087166 Z" id="Rectangle-2"></path>
                    <circle id="Oval" cx="5.5" cy="4.5" r="2"></circle>
                    <path d="M3,8.5 C3,8.22385763 3.21484375,8 3.49769878,8 L7.50230122,8 C7.77717266,8 8,8.23193359 8,8.5 C8,8.77614237 7.78515625,9 7.50230122,9 L3.49769878,9 C3.22282734,9 3,8.76806641 3,8.5 Z M3,10.5 C3,10.2238576 3.21484375,10 3.49769878,10 L7.50230122,10 C7.77717266,10 8,10.2319336 8,10.5 C8,10.7761424 7.78515625,11 7.50230122,11 L3.49769878,11 C3.22282734,11 3,10.7680664 3,10.5 Z M3,12.5 C3,12.2238576 3.21484375,12 3.49769878,12 L7.50230122,12 C7.77717266,12 8,12.2319336 8,12.5 C8,12.7761424 7.78515625,13 7.50230122,13 L3.49769878,13 C3.22282734,13 3,12.7680664 3,12.5 Z" id="Combined-Shape"></path>
                </g>
            </g>
        </g>
    </g>
</svg>

<svg xmlns="http://www.w3.org/2000/svg" width="16" height="16" viewBox="0 0 16 16">
    <g fill="#000" fill-rule="evenodd" transform="translate(3)">
        <path fill-rule="nonzero" d="M1 1.994v12.012c0 .548.445.994.992.994h7.016a.998.998 0 0 0 .992-.994V1.994A.994.994 0 0 0 9.008 1H1.992A.998.998 0 0 0 1 1.994zm-1 0C0 .893.9 0 1.992 0h7.016C10.108 0 11 .895 11 1.994v12.012C11 15.107 10.1 16 9.008 16H1.992C.892 16 0 15.105 0 14.006V1.994z"/>
        <circle cx="5.5" cy="4.5" r="2"/>
        <path d="M3 8.5c0-.276.215-.5.498-.5h4.004c.275 0 .498.232.498.5 0 .276-.215.5-.498.5H3.498A.504.504 0 0 1 3 8.5zm0 2c0-.276.215-.5.498-.5h4.004c.275 0 .498.232.498.5 0 .276-.215.5-.498.5H3.498A.504.504 0 0 1 3 10.5zm0 2c0-.276.215-.5.498-.5h4.004c.275 0 .498.232.498.5 0 .276-.215.5-.498.5H3.498A.504.504 0 0 1 3 12.5z"/>
    </g>
</svg>
